ui-icons/icons/zap-fill-16.svg

<?xml version="1.0" encoding="UTF-8"?>
<svg width="16px" height="16px" viewBox="0 0 16 16" version="1.1" xmlns="http://www.w3.org/2000/svg" xmlns:xlink="http://www.w3.org/1999/xlink">
    <title>icon/16/zap-fill-16</title>
    <g id="icon/16/zap-fill-16" stroke="none" stroke-width="1" fill="none" fill-rule="evenodd">
        <path d="M9.54521137,0.428234059 C10.0677551,-0.0790073457 10.877144,-0.143025768 11.4729317,0.27576146 C12.0687195,0.694548689 12.2825499,1.47780164 11.9822114,2.14123406 L10.4562114,5.49823406 L12.5792114,5.49823406 C14.1492114,5.49823406 14.9252114,7.40723406 13.7992114,8.50223406 L6.45921137,15.6442341 C6.22606781,15.8711758 5.91357037,15.9982341 5.58821137,15.9982341 L5.28621137,15.9982341 C4.86976782,15.9982341 4.48068117,15.7908085 4.24852352,15.4450802 C4.01636586,15.0993519 3.97162913,14.6607118 4.12921137,14.2752341 L5.67421137,10.4982341 L3.50321137,10.4982341 C1.93321137,10.4982341 1.15721137,8.58923406 2.28321137,7.49423406 L9.54421137,0.427234059 L9.54521137,0.428234059 Z" id="Path" fill="#000000" fill-rule="nonzero"></path>
    </g>
</svg>

<svg xmlns="http://www.w3.org/2000/svg" width="16" height="16" viewBox="0 0 16 16"><path d="M9.545.428a1.516 1.516 0 0 1 2.437 1.713l-1.526 3.357h2.123c1.57 0 2.346 1.91 1.22 3.004l-7.34 7.142a1.25 1.25 0 0 1-.87.354h-.303a1.25 1.25 0 0 1-1.157-1.723l1.545-3.777h-2.17c-1.57 0-2.347-1.909-1.22-3.004z"/></svg>
